svg/color/jmpt.svg

<?xml version="1.0" encoding="UTF-8" ?>
<!DOCTYPE svg PUBLIC "-//W3C//DTD SVG 1.1//EN" "http://www.w3.org/Graphics/SVG/1.1/DTD/svg11.dtd">
<svg width="250pt" height="250pt" viewBox="0 0 250 250" version="1.1" xmlns="http://www.w3.org/2000/svg">
<g id="#ffffffff">
<path fill="#ffffff" opacity="1.00" d=" M 0.00 0.00 L 250.00 0.00 L 250.00 250.00 L 0.00 250.00 L 0.00 0.00 M 156.81 15.61 C 151.14 28.43 144.10 40.58 137.95 53.17 C 136.51 56.17 134.52 59.00 134.00 62.35 C 136.87 62.39 139.75 62.35 142.62 62.37 C 142.65 105.60 142.62 148.82 142.64 192.04 C 143.31 201.56 134.24 209.72 124.99 209.56 C 116.37 210.10 106.68 203.20 107.29 193.99 C 107.31 164.76 107.29 135.52 107.31 106.29 C 110.20 106.29 113.10 106.30 116.00 106.29 C 115.66 103.67 114.19 101.43 112.95 99.16 C 106.82 87.50 100.95 75.70 95.06 63.91 C 94.09 62.17 93.71 59.92 91.83 58.89 C 89.90 61.51 89.00 64.73 87.29 67.50 C 80.96 80.47 73.76 93.01 67.97 106.22 C 70.88 106.27 73.79 106.25 76.70 106.26 C 76.61 134.83 76.66 163.41 76.68 191.98 C 78.16 205.04 83.19 218.83 94.40 226.62 C 103.62 233.62 115.58 235.92 126.94 235.53 C 138.88 235.43 151.19 231.32 159.62 222.62 C 167.36 215.14 171.39 204.49 172.53 193.98 C 172.87 149.91 172.41 105.84 172.76 61.77 C 175.81 61.74 178.86 61.79 181.91 61.69 C 174.57 45.93 166.00 30.76 158.35 15.16 C 157.97 15.27 157.20 15.50 156.81 15.61 Z" />
</g>
<g id="#5697f9ff">
<path fill="#5697f9" opacity="1.00" d=" M 156.81 15.61 C 157.20 15.50 157.97 15.27 158.35 15.16 C 166.00 30.76 174.57 45.93 181.91 61.69 C 178.86 61.79 175.81 61.74 172.76 61.77 C 172.41 105.84 172.87 149.91 172.53 193.98 C 171.39 204.49 167.36 215.14 159.62 222.62 C 151.19 231.32 138.88 235.43 126.94 235.53 C 115.58 235.92 103.62 233.62 94.40 226.62 C 83.19 218.83 78.16 205.04 76.68 191.98 C 76.66 163.41 76.61 134.83 76.70 106.26 C 73.79 106.25 70.88 106.27 67.97 106.22 C 73.76 93.01 80.96 80.47 87.29 67.50 C 89.00 64.73 89.90 61.51 91.83 58.89 C 93.71 59.92 94.09 62.17 95.06 63.91 C 100.95 75.70 106.82 87.50 112.95 99.16 C 114.19 101.43 115.66 103.67 116.00 106.29 C 113.10 106.30 110.20 106.29 107.31 106.29 C 107.29 135.52 107.31 164.76 107.29 193.99 C 106.68 203.20 116.37 210.10 124.99 209.56 C 134.24 209.72 143.31 201.56 142.64 192.04 C 142.62 148.82 142.65 105.60 142.62 62.37 C 139.75 62.35 136.87 62.39 134.00 62.35 C 134.52 59.00 136.51 56.17 137.95 53.17 C 144.10 40.58 151.14 28.43 156.81 15.61 Z" />
</g>
</svg>

<?xml version="1.0" encoding="utf-8"?>
<!-- Generator: Adobe Illustrator 26.0.3, SVG Export Plug-In . SVG Version: 6.00 Build 0)  -->
<svg version="1.1" id="Layer_1" xmlns="http://www.w3.org/2000/svg" xmlns:xlink="http://www.w3.org/1999/xlink" x="0px" y="0px"
	 viewBox="0 0 250 250" style="enable-background:new 0 0 250 250;" xml:space="preserve">
<style type="text/css">
	.st0{fill:#5697F9;}
</style>
<g id="_x23_5697f9ff">
	<path class="st0" d="M156.8,15.6c0.4-0.1,1.2-0.3,1.5-0.4c7.6,15.6,16.2,30.8,23.6,46.5c-3.1,0.1-6.1,0.1-9.2,0.1
		c-0.3,44.1,0.1,88.1-0.2,132.2c-1.1,10.5-5.2,21.2-12.9,28.6c-8.4,8.7-20.7,12.8-32.7,12.9c-11.4,0.4-23.3-1.9-32.5-8.9
		C83.2,218.8,78.2,205,76.7,192c0-28.6-0.1-57.1,0-85.7c-2.9,0-5.8,0-8.7,0C73.8,93,81,80.5,87.3,67.5c1.7-2.8,2.6-6,4.5-8.6
		c1.9,1,2.3,3.3,3.2,5c5.9,11.8,11.8,23.6,17.9,35.3c1.2,2.3,2.7,4.5,3.1,7.1c-2.9,0-5.8,0-8.7,0c0,29.2,0,58.5,0,87.7
		c-0.6,9.2,9.1,16.1,17.7,15.6c9.3,0.2,18.3-8,17.7-17.5c0-43.2,0-86.4,0-129.7c-2.9,0-5.8,0-8.6,0c0.5-3.3,2.5-6.2,3.9-9.2
		C144.1,40.6,151.1,28.4,156.8,15.6z"/>
</g>
</svg>
